dist/images/grace/location3.svg

<svg width="126" height="126" viewBox="0 0 126 126" fill="none" xmlns="http://www.w3.org/2000/svg">
<circle cx="63" cy="63" r="61.5" stroke="#E2704C" stroke-width="3"/>
<path d="M92.1836 90.3672H86.2177V86.2177H92.1836C92.813 86.2177 93.3977 85.8917 93.7288 85.3562C94.0597 84.8208 94.0897 84.1521 93.8082 83.589L89.2858 74.5444H90.2381C90.8675 74.5444 91.4522 74.2184 91.7833 73.6829C92.1142 73.1474 92.1442 72.4788 91.8627 71.9157L87.3403 62.8709H88.2925C88.9219 62.8709 89.5066 62.545 89.8376 62.0095C90.1686 61.474 90.1986 60.8053 89.9171 60.2422L82.1348 44.6777C81.8272 44.0623 81.1982 43.6736 80.5102 43.6736C79.8221 43.6736 79.1931 44.0623 78.8856 44.6777L71.1032 60.2422C70.8217 60.8052 70.8517 61.474 71.1827 62.0095C71.5136 62.545 72.0984 62.8709 72.7278 62.8709H73.6801L69.1577 71.9157C68.8762 72.4786 68.9062 73.1474 69.2372 73.6829C69.5681 74.2184 70.1529 74.5444 70.7823 74.5444H71.7346L67.2122 83.589C66.9307 84.1521 66.9607 84.8208 67.2917 85.3562C67.6226 85.8917 68.2074 86.2177 68.8368 86.2177H74.8028V90.3672H49.252V86.2177H53.2723C58.5651 86.2177 62.871 81.9117 62.871 76.6191V64.9456C62.871 59.6529 58.5651 55.3469 53.2723 55.3469H41.5989C36.306 55.3469 32 59.6529 32 64.9456V76.6191C32 81.9118 36.306 86.2177 41.5987 86.2177H45.6191V90.3672H33.8164C32.8133 90.3672 32 91.1805 32 92.1836C32 93.1868 32.8133 94 33.8164 94H92.1836C93.1867 94 94 93.1868 94 92.1836C94 91.1805 93.1867 90.3672 92.1836 90.3672ZM47.4355 63.1292C46.4323 63.1292 45.6191 63.9425 45.6191 64.9456V72.2339L42.8831 69.4979C42.1738 68.7885 41.0237 68.7885 40.3143 69.4979C39.6049 70.2073 39.6049 71.3573 40.3143 72.0667L45.6191 77.3714V82.585H41.5987C38.3091 82.5849 35.6328 79.9087 35.6328 76.6191V64.9456C35.6328 61.656 38.3091 58.9797 41.5987 58.9797H53.2722C56.5618 58.9797 59.2381 61.656 59.2381 64.9456V76.6191C59.2381 79.9087 56.5618 82.5849 53.2722 82.5849H49.2519V77.3714L54.5565 72.0667C55.2659 71.3573 55.2659 70.2073 54.5565 69.4979C53.8472 68.7885 52.6971 68.7885 51.9877 69.4979L49.2519 72.2338V64.9455C49.2519 63.9425 48.4386 63.1292 47.4355 63.1292ZM80.5102 49.5515L85.3534 59.238H75.6669L80.5102 49.5515ZM77.7416 62.8708H83.2787L87.299 70.9114H73.7213L77.7416 62.8708ZM71.7758 82.5849L75.7961 74.5443H85.2242L89.2445 82.5849H71.7758ZM82.5849 90.3672H78.4353V86.2177H82.5849V90.3672Z" fill="#373737"/>
<path d="M48.4079 47.3063C49.3331 47.3063 50.2452 47.1121 51.0842 46.7456C52.6843 48.3375 54.8577 49.2519 57.163 49.2519C59.4683 49.2519 61.6416 48.3375 63.2418 46.7455C64.0808 47.1121 64.993 47.3063 65.9181 47.3063C69.6016 47.3063 72.5984 44.3094 72.5984 40.6259C72.5984 36.9423 69.6016 33.9456 65.9181 33.9456C64.993 33.9456 64.0808 34.1397 63.2418 34.5064C61.6415 32.9144 59.4683 32 57.163 32C54.8577 32 52.6845 32.9144 51.0842 34.5064C50.2452 34.1397 49.3331 33.9456 48.4079 33.9456C44.7244 33.9456 41.7275 36.9424 41.7275 40.626C41.7275 44.3095 44.7244 47.3063 48.4079 47.3063ZM48.4079 37.5784C49.1197 37.5784 49.7871 37.8169 50.3375 38.2678C50.7346 38.5931 51.2507 38.7351 51.7582 38.6591C52.2657 38.5829 52.7174 38.2957 53.0015 37.8681C53.9317 36.4685 55.4874 35.6328 57.163 35.6328C58.8386 35.6328 60.3944 36.4685 61.3245 37.8681C61.6086 38.2955 62.0601 38.5829 62.5678 38.6591C63.0753 38.7351 63.5913 38.5931 63.9883 38.2679C64.5389 37.8169 65.2063 37.5784 65.9181 37.5784C67.5985 37.5784 68.9656 38.9456 68.9656 40.626C68.9656 42.3064 67.5985 43.6734 65.9181 43.6734C65.2063 43.6734 64.5389 43.435 63.9883 42.9841C63.5914 42.6589 63.0752 42.5168 62.5678 42.5929C62.0603 42.6691 61.6086 42.9563 61.3245 43.3838C60.3943 44.7835 58.8386 45.6191 57.163 45.6191C55.4874 45.6191 53.9317 44.7835 53.0015 43.3838C52.7174 42.9563 52.2657 42.6691 51.7582 42.5929C51.5692 42.5646 50.9293 42.4993 50.3375 42.9841C49.7872 43.435 49.1198 43.6734 48.4079 43.6734C46.7275 43.6734 45.3604 42.3063 45.3604 40.6259C45.3604 38.9455 46.7275 37.5784 48.4079 37.5784Z" fill="#373737"/>
</svg>

<svg width="126" height="126" fill="none" xmlns="http://www.w3.org/2000/svg"><circle cx="63" cy="63" r="61.5" stroke="#E2704C" stroke-width="3"/><path d="M92.184 90.367h-5.966v-4.15h5.966a1.817 1.817 0 001.624-2.628l-4.522-9.045h.952a1.817 1.817 0 001.625-2.628L87.34 62.87h.953a1.817 1.817 0 001.624-2.629l-7.782-15.564a1.816 1.816 0 00-3.25 0l-7.782 15.564a1.816 1.816 0 001.625 2.629h.952l-4.522 9.045a1.816 1.816 0 001.624 2.628h.953l-4.523 9.045a1.816 1.816 0 001.625 2.629h5.966v4.15H49.252v-4.15h4.02c5.293 0 9.599-4.306 9.599-9.599V64.946c0-5.293-4.306-9.6-9.599-9.6H41.6c-5.293 0-9.599 4.307-9.599 9.6v11.673c0 5.293 4.306 9.599 9.599 9.599h4.02v4.15H33.816a1.816 1.816 0 000 3.632h58.368a1.816 1.816 0 000-3.633zM47.436 63.13a1.816 1.816 0 00-1.817 1.817v7.288l-2.736-2.736a1.816 1.816 0 10-2.569 2.569l5.305 5.304v5.214H41.6a5.973 5.973 0 01-5.966-5.966V64.946A5.973 5.973 0 0141.6 58.98h11.673a5.973 5.973 0 015.966 5.966v11.673a5.973 5.973 0 01-5.966 5.966h-4.02V77.37l5.304-5.304a1.816 1.816 0 10-2.568-2.57l-2.736 2.737v-7.288a1.816 1.816 0 00-1.817-1.817zM80.51 49.551l4.843 9.687h-9.686l4.843-9.687zm-2.768 13.32h5.537l4.02 8.04H73.721l4.02-8.04zm-5.966 19.714l4.02-8.04h9.428l4.02 8.04H71.776zm10.809 7.782h-4.15v-4.15h4.15v4.15z" fill="#373737"/><path d="M48.408 47.306a6.7 6.7 0 002.676-.56 8.606 8.606 0 006.079 2.506 8.606 8.606 0 006.079-2.507 6.683 6.683 0 002.676.561 6.688 6.688 0 006.68-6.68 6.688 6.688 0 00-6.68-6.68 6.69 6.69 0 00-2.676.56A8.606 8.606 0 0057.163 32a8.606 8.606 0 00-6.079 2.506 6.689 6.689 0 00-2.676-.56 6.688 6.688 0 00-6.68 6.68 6.688 6.688 0 006.68 6.68zm0-9.728c.712 0 1.38.239 1.93.69a1.817 1.817 0 002.663-.4 4.988 4.988 0 014.162-2.235c1.676 0 3.231.835 4.162 2.235a1.817 1.817 0 002.663.4 3.013 3.013 0 011.93-.69 3.051 3.051 0 013.048 3.048 3.05 3.05 0 01-3.048 3.047c-.712 0-1.38-.238-1.93-.689a1.817 1.817 0 00-2.663.4 4.988 4.988 0 01-4.162 2.235 4.988 4.988 0 01-4.161-2.235 1.817 1.817 0 00-2.665-.4 3.01 3.01 0 01-1.93.69 3.05 3.05 0 01-3.047-3.048 3.05 3.05 0 013.048-3.048z" fill="#373737"/></svg>
